X:1
T: The Academy Jig
C:
R:Jig
Q:180
K:G
M:6/8
L:1/16
D4G2 G2A2B2|c4A2 d4c2|B4g2 d2c2B2|A4E2 G2F2E2|D4G2 G2A2B2|c4A2 d4c2|B2g2f2 e2d2c2|B2c2A2 G4B2|
D4G2 G2A2B2|c4A2 d4c2|B4g2 d2c2B2|A4E2 G2F2E2|D4G2 G2A2B2|c4A2 d4c2|B2g2f2 e2d2c2|B2c2A2 G4B2|
d4B2 g2f2e2|d4g2 B4d2|c4a2 B4g2|A4d2 c2B2c2|d4B2 g2f2e2|d4g2 B4d2|c4A2 f2e2f2|g6 G4B2|
d4B2 g2f2e2|d4g2 B4d2|c4a2 B4g2|A4d2 c2B2c2|d4B2 g2f2e2|d4g2 B4d2|c4A2 f2e2f2|g6 G6||
